!!!COM: Manoa, Afaese
!!!CDT: b. 1942
!!!OTL: National Anthem, Tuvalu
!!!ENC: Davis, Matthew J.
!!Vocal Line Only
**kern
*clefG2
*k[b-e-]
*B-:
*M4/4
=1-
4f
=2
4b-
4b-
4cc
8b-
8b-
=3
4b-
2a
8a
8b-
=4
4cc
4a
4b-
4cc
=5
2.dd
8dd
8dd
=6
4dd
4b-
4dd
4cc
=7
4cc
2b-
8a
8b-
=8
4cc
4cc
4dd
4dd
=9
2.cc
8f
8f
=10
2b-
4.b-
8b-
=11
2.b-
8b-
8cc
=12
4dd
4dd
4dd
4cc
=13
2.b-
8a
8b-
=14
2cc
4.cc
8cc
=15
2.cc
8cc
8b-
=16
4a
4b-
4a
4g
=17
2.f
4f
=18
4b-
8b-
8b-
4b-
4a
=19
4a
2g
8g
8g
=20
4cc
4cc
4cc
4b-
=21
2.a
4f
=22
2b-
4.b-
8b-
=23
4b-
4cc
8dd
8dd
8ee-
8ee-
=24
4dd
4dd
4.dd
8cc
=25
2.b-
==|!
*-
